X:3131
T:Coast of Austria, The
C:Sean Ryan
R:reel
D:Sean Ryan: Siuil Uait
Z:id:hn-reel-218
M:C|
K:A
ce~e2 fece|ef~f2 ecBc|Ae~e2 fece|faag ~a3b|
c'bac' baf2|effe faaf|e2ce ef~f2|ecBc ~A3B:|
|:Jc3B AF~F2|~E3F ~A3B|ce~e2 fece|faag ~a3b|
c'bac' baf2|effe faaf|e2ce ef~f2|ecBc ~A3B:|


